X:162
T:Dol-Li-A
Z:Jack Campin, http://www.campin.me.uk/
F:Jack Campin's Nine-Note Tunebook
% last edit 03-02-2013
S:Northumbrian Minstrelsy
M:C
L:1/8
Q:1/4=80
K:DMin
 D2 EF  GE D2|FG A2 FG A2|\
 D2 EF  GE D2|FG A2 D4  ||
 B2 AG  AF D2|F2 Az F2 Az|\
 B2 AG  AF D2|FG Az D4  |]

